src/assets/images/logo.svg

<svg width="145" height="30" viewBox="0 0 145 30" fill="none" xmlns="http://www.w3.org/2000/svg">
<path fill-rule="evenodd" clip-rule="evenodd" d="M0 2.22118C0 1.76087 0.369365 1.38771 0.825 1.38771H3.3C3.75564 1.38771 4.125 1.76087 4.125 2.22118V17.2235C4.125 17.6838 4.49437 18.057 4.95 18.057H15.675C16.1306 18.057 16.5 17.6838 16.5 17.2235V14.7231C16.5 14.2628 16.1306 13.8897 15.675 13.8897H10.725C9.3581 13.8897 8.25 12.7702 8.25 11.3893V3.8881C8.25 2.50718 9.3581 1.38771 10.725 1.38771H18.15C19.5169 1.38771 20.625 2.50718 20.625 3.8881V19.7239C20.625 21.1049 19.5169 22.2243 18.15 22.2243H2.475C1.1081 22.2243 0 21.1049 0 19.7239V2.22118ZM16.5 6.3885C16.5 5.92819 16.1306 5.55503 15.675 5.55503H12.375V8.88889C12.375 9.3492 12.7444 9.72236 13.2 9.72236H16.5V6.3885Z" fill="url(#paint0_linear_47326_21)"/>
<path d="M29.4375 0V23.1713H33.4078V0H29.4375Z" fill="#213F7D"/>
<path d="M52.9489 16.442C53.5724 9.71271 50.1927 6.33149 44.7786 6.33149C39.5286 6.33149 36.1818 9.9116 36.1818 14.884C36.1818 20.1215 39.4958 23.6022 45.0739 23.6022C47.5349 23.6022 50.3239 22.7403 52.0302 20.9503L49.4708 18.3978C48.5521 19.3591 46.6161 19.9227 45.1396 19.9227C42.3177 19.9227 40.5786 18.4641 40.3161 16.442H52.9489ZM40.3818 13.0939C40.9724 10.9724 42.7443 9.9116 44.9099 9.9116C47.2068 9.9116 48.8474 10.9724 49.1099 13.0939H40.3818Z" fill="#213F7D"/>
<path d="M71.9476 23.1713V14.5856C71.9476 9.44751 68.8961 6.56354 65.0898 6.56354C63.0554 6.56354 61.4148 7.39227 59.7742 9.01657L59.5117 6.79558H55.9351V23.1713H59.9054V14.8177C59.9054 12.3315 61.5789 10.2431 64.0398 10.2431C66.5992 10.2431 67.9445 12.1326 67.9445 14.6188V23.1713H71.9476Z" fill="#213F7D"/>
<path d="M83.23 10.2099C85.7566 10.2099 87.9222 12.1326 87.9222 14.9834C87.9222 17.9337 85.7566 19.7901 83.23 19.7901C80.6706 19.7901 78.6363 17.8343 78.6363 14.9834C78.6363 12.0331 80.6706 10.2099 83.23 10.2099ZM88.1847 0V9.04972C87.2331 7.35912 84.5753 6.43094 82.8691 6.43094C78.1441 6.43094 74.6331 9.34807 74.6331 14.9834C74.6331 20.3536 78.2097 23.5359 82.9675 23.5359C84.9362 23.5359 86.9378 22.8729 88.1847 20.9171L88.4472 23.1713H92.1878V0H88.1847Z" fill="#213F7D"/>
<path d="M108.468 8.51934C106.598 6.86188 104.695 6.36464 102.168 6.36464C99.2151 6.36464 95.3432 7.69061 95.3432 11.4696C95.3432 15.1823 98.9854 16.3094 102.037 16.5414C104.334 16.674 105.253 17.1381 105.253 18.2652C105.253 19.4586 103.842 20.2541 102.332 20.221C100.528 20.1878 97.9026 19.2265 96.7541 17.9337L94.7854 20.8177C97.1479 23.3039 99.7073 23.7348 102.267 23.7348C106.893 23.7348 109.223 21.2486 109.223 18.3646C109.223 14.0221 105.351 13.326 102.299 13.1271C100.232 12.9945 99.2807 12.3978 99.2807 11.337C99.2807 10.3094 100.331 9.71271 102.234 9.71271C103.776 9.71271 105.089 10.0773 106.237 11.1713L108.468 8.51934Z" fill="#213F7D"/>
<path d="M119.599 19.6575C116.875 19.6575 115.005 17.5691 115.005 15.0166C115.005 12.4641 116.711 10.3757 119.599 10.3757C122.486 10.3757 124.192 12.4641 124.192 15.0166C124.192 17.5691 122.322 19.6575 119.599 19.6575ZM128.556 30V6.82873H124.816L124.553 9.08287C123.306 7.25967 121.141 6.46409 119.303 6.46409C114.316 6.46409 111.002 10.2099 111.002 15.0166C111.002 19.7901 113.988 23.5691 119.172 23.5691C120.878 23.5691 123.405 23.0387 124.553 21.2486V30H128.556Z" fill="#213F7D"/>
<path d="M132.073 6.82873V23.1713H136.076V14.5525C136.076 11.5359 138.012 10.4088 140.112 10.4088C141.424 10.4088 142.179 10.7735 142.999 11.4696L144.804 7.9558C143.918 7.06077 142.31 6.39779 140.637 6.39779C138.996 6.39779 137.323 6.69613 136.076 8.71823L135.781 6.82873H132.073Z" fill="#213F7D"/>
<defs>
<linearGradient id="paint0_linear_47326_21" x1="-1.55986e-06" y1="32.4343" x2="21.8776" y2="-3.51985" gradientUnits="userSpaceOnUse">
<stop stop-color="#213F7D"/>
<stop offset="1" stop-color="#39CDCC"/>
</linearGradient>
</defs>
</svg>

<svg xmlns="http://www.w3.org/2000/svg" width="145" height="30" fill="none"><path fill="url(#a)" fill-rule="evenodd" d="M0 2.221c0-.46.37-.833.825-.833H3.3a.83.83 0 0 1 .825.833v15.003c0 .46.37.833.825.833h10.725a.83.83 0 0 0 .825-.833v-2.5a.83.83 0 0 0-.825-.834h-4.95c-1.367 0-2.475-1.12-2.475-2.5V3.887c0-1.38 1.108-2.5 2.475-2.5h7.425c1.367 0 2.475 1.12 2.475 2.5v15.836c0 1.38-1.108 2.5-2.475 2.5H2.475c-1.367 0-2.475-1.12-2.475-2.5V2.22ZM16.5 6.39a.83.83 0 0 0-.825-.834h-3.3V8.89c0 .46.37.833.825.833h3.3V6.39Z" clip-rule="evenodd"/><path fill="#213F7D" d="M29.438 0v23.171h3.97V0h-3.97Zm23.511 16.442c.623-6.73-2.756-10.11-8.17-10.11-5.25 0-8.597 3.58-8.597 8.552 0 5.238 3.314 8.718 8.892 8.718 2.46 0 5.25-.862 6.956-2.652l-2.56-2.552c-.918.961-2.854 1.525-4.33 1.525-2.822 0-4.561-1.459-4.824-3.481H52.95Zm-12.567-3.348c.59-2.122 2.362-3.182 4.528-3.182 2.297 0 3.937 1.06 4.2 3.182h-8.728Zm31.566 10.077v-8.585c0-5.138-3.052-8.022-6.858-8.022-2.035 0-3.675.828-5.316 2.453l-.262-2.221h-3.577V23.17h3.97v-8.353c0-2.486 1.674-4.575 4.135-4.575 2.56 0 3.904 1.89 3.904 4.376v8.552h4.004ZM83.23 10.21c2.527 0 4.692 1.923 4.692 4.773 0 2.95-2.165 4.807-4.692 4.807-2.56 0-4.594-1.956-4.594-4.807 0-2.95 2.035-4.773 4.594-4.773ZM88.185 0v9.05c-.952-1.69-3.61-2.62-5.316-2.62-4.725 0-8.236 2.918-8.236 8.553 0 5.37 3.577 8.553 8.335 8.553 1.968 0 3.97-.663 5.217-2.619l.262 2.254h3.74V0h-4.002Zm20.283 8.52c-1.87-1.658-3.773-2.155-6.3-2.155-2.953 0-6.825 1.326-6.825 5.105 0 3.712 3.642 4.84 6.694 5.071 2.297.133 3.216.597 3.216 1.724 0 1.194-1.411 1.99-2.921 1.956-1.804-.033-4.43-.994-5.578-2.287l-1.969 2.884c2.363 2.486 4.922 2.917 7.482 2.917 4.626 0 6.956-2.486 6.956-5.37 0-4.343-3.872-5.039-6.924-5.238-2.067-.133-3.018-.73-3.018-1.79 0-1.028 1.05-1.624 2.953-1.624 1.542 0 2.855.364 4.003 1.458l2.231-2.652Zm11.131 11.137c-2.724 0-4.594-2.088-4.594-4.64 0-2.553 1.706-4.641 4.594-4.641 2.887 0 4.593 2.088 4.593 4.64 0 2.553-1.87 4.641-4.593 4.641ZM128.556 30V6.829h-3.74l-.263 2.254c-1.247-1.823-3.412-2.619-5.25-2.619-4.987 0-8.301 3.746-8.301 8.553 0 4.773 2.986 8.552 8.17 8.552 1.706 0 4.233-.53 5.381-2.32V30h4.003Zm3.517-23.171V23.17h4.003v-8.618c0-3.017 1.936-4.144 4.036-4.144 1.312 0 2.067.364 2.887 1.06l1.805-3.513c-.886-.895-2.494-1.558-4.167-1.558-1.641 0-3.314.298-4.561 2.32l-.295-1.89h-3.708Z"/><defs><linearGradient id="a" x1="0" x2="21.878" y1="32.434" y2="-3.52" gradientUnits="userSpaceOnUse"><stop stop-color="#213F7D"/><stop offset="1" stop-color="#39CDCC"/></linearGradient></defs></svg>
